X:1
T:Title
%%score ( 1 2 ) ( 3 4 )
L:1/8
Q:1/4=102
M:4/4
K:A
V:1 treble nm="Grand Piano, Soprano"
V:2 treble 
V:3 bass nm="Choir Pad, I Will (Whittle)"
V:4 bass 
V:1
 [CE]2 [CA]2 [CA]2 [Ec]2- | [Ec][EA][DB][DA] [DA][DF] [CE]2- | [CE][CE] [DF]2 [EA]2 [Ed]2 | %3
w: By~James~McGranahan * * *|||
 [Ec]2 [EB]6 | [DE]2 [CA]2 [CA]2 [Ec]2- | [Ec][=GA][FB][FA] [FA][DF] [CE]2- | %6
w: |||
 [CE][CE] [DF]2 [Fd]2 [Ec]2 | [DB]2 [CA]6 | z2 B4 c2- | c z z2 z4 | z2 B2 B2 z2 | %11
w: |||||
 [DE]2 [CA]2 [CA]2 [Ec]2- | [Ec][=GA][FB][FA] [FA][DF] [CE]2- | [CE][CE] [DF]2 [Fd]2 [Ec]2 | %14
w: |||
 [DB]2 [CA]6- | [CA]2 z2 z4 |] %16
w: ||
V:2
 x8 | x8 | x8 | x8 | x8 | x8 | x8 | x8 | z E z G GE z A | AE [Fd]2 [Fd]2 [Ec][Ec] | %10
 [^DB][DF]EF GA [GB]2 | x8 | x8 | x8 | x8 | x8 |] %16
V:3
 [A,,A,]2 [A,,E,]2 [A,,E,]2 [A,,A,]2- | [A,,A,][C,A,][D,A,][D,F,] [D,F,][D,A,] [A,,A,]2- | %2
 [A,,A,][A,,A,] [D,A,]2 [C,A,]2 [B,,G,]2 | [A,,A,]2 [E,G,]6 | [E,G,]2 [A,,A,]2 [A,,E,]2 [A,,A,]2- | %5
 [A,,A,][C,A,][D,A,][D,A,] [D,A,][D,A,] [A,,A,]2- | [A,,A,][A,,A,] [D,A,]2 [B,,A,]2 [E,A,]2 | %7
 [E,G,]2 [A,,E,A,]6 | z2 z [E,D] .[E,D]2 z [A,E] | [A,E][A,C] [D,A,]2 [E,G,]2 [F,A,][F,A,] | %10
 [F,A,][F,A,]G,A, B,C [E,D]2 | [E,G,]2 [A,,A,]2 [A,,E,]2 [A,,A,]2- | %12
 [A,,A,][C,A,][D,A,][D,A,] [D,A,][D,A,] [A,,A,]2- | [A,,A,][A,,A,] [D,A,]2 [B,,A,]2 [E,A,]2 | %14
 [E,G,]E, [A,,E,]6- | [A,,E,]2 z2 z4 |] %16
V:4
 x8 | x8 | x8 | x8 | x8 | x8 | x8 | x8 | x8 | x8 | z2 E,2 E,2 z2 | x8 | x8 | x8 | x8 | x8 |] %16

